web/packages/design/src/ResourceIcon/assets/dynamo.svg

<svg width="72" height="72" viewBox="0 0 72 72" fill="none" xmlns="http://www.w3.org/2000/svg">
<path d="M45.0849 71.8757H45.9588L60.2224 64.742L60.4598 64.4064V7.46508L60.2224 7.12775L45.9588 0H45.0742L45.0849 71.8757Z" fill="#5294CF"/>
<path d="M26.5226 71.8757H25.6366L11.3851 64.742L11.0959 64.2444L10.9492 7.75507L11.3851 7.12775L25.6366 0H26.5336L26.5226 71.8757Z" fill="#1F5B98"/>
<path d="M25.6621 0H45.9452V71.8757H25.6621V0Z" fill="#2D72B8"/>
<path d="M67.6891 34.3233L67.2071 34.2164L60.325 33.5746L60.2229 33.6254L45.9465 33.0544H25.6625L11.3859 33.6254V22.7372L11.3709 22.7452L11.3859 22.7133L25.6625 19.4048H45.9465L60.2229 22.7133L65.4711 25.5034V23.7096L67.6891 23.4669L67.4594 23.019L60.4368 17.9967L60.2229 18.0662L45.9465 13.6418H25.6625L11.3859 18.0662V7.12793L3.91992 15.8758V23.5158L3.97771 23.4739L6.13789 23.7096V25.5402L3.91992 26.7274V34.3292L3.97771 34.3233L6.13789 34.3551V37.5458L4.27414 37.5737L3.91992 37.5398V45.1447L6.13789 46.3375V48.1894L4.01284 48.424L3.91992 48.3543V55.993L11.3859 64.7421V53.8049L25.6625 58.2292H45.9465L60.265 53.7919L60.4553 53.8754L67.3854 48.927L67.6891 48.434L65.4711 48.1894V46.3747L65.1804 46.2586L60.4368 48.8159L60.265 49.1747L45.9465 52.464V52.468H25.6625V52.464L11.3859 49.1607V38.2327L25.6625 38.8017V38.8157H45.9465L60.2229 38.2327L60.5479 38.3822L67.2185 37.8077L67.6891 37.5777L65.4711 37.5458V34.3551L67.6891 34.3233Z" fill="#1A476F"/>
<path d="M60.2227 53.8049V64.7421L67.6889 55.993V48.4041L60.2658 53.7919L60.2227 53.8049ZM60.2227 49.1847L60.2658 49.1747L67.6889 45.1815V37.5458L60.2227 38.2327V49.1847ZM60.2658 22.7233L60.2227 22.7133V33.6254L67.6889 34.3233V26.6913L60.2658 22.7233ZM60.2658 18.109L67.6889 23.4669V15.8778L60.2227 7.12793V18.0662L60.2658 18.0811V18.109Z" fill="#2D72B8"/>
</svg>

<svg xmlns="http://www.w3.org/2000/svg" width="72" height="72" fill="none" viewBox="0 0 72 72"><path fill="#5294cf" d="M45.085 71.876h.874l14.263-7.134.238-.336V7.466l-.238-.338L45.96 0h-.885z"/><path fill="#1f5b98" d="M26.523 71.876h-.886l-14.252-7.134-.29-.498-.146-56.489.436-.627L25.637 0h.897z"/><path fill="#2d72b8" d="M25.662 0h20.283v71.876H25.662z"/><path fill="#1a476f" d="m67.69 34.323-.483-.107-6.882-.641-.102.05-14.276-.57H25.663l-14.277.57V22.737l-.015.008.015-.032 14.277-3.308h20.284l14.276 3.308 5.248 2.79V23.71l2.218-.243-.23-.448-7.022-5.022-.214.07-14.276-4.425H25.663l-14.277 4.424V7.128L3.92 15.876v7.64l.058-.042 2.16.236v1.83L3.92 26.727v7.602l.058-.006 2.16.032v3.19l-1.864.029-.354-.034v7.605l2.218 1.192v1.852l-2.125.235-.093-.07v7.639l7.466 8.75V53.804l14.277 4.424h20.284l14.318-4.437.19.083 6.93-4.948.304-.493-2.218-.245v-1.814l-.29-.116-4.744 2.557-.172.359-14.318 3.289v.004H25.663v-.004L11.386 49.16V38.233l14.277.569v.014h20.284l14.276-.583.325.15 6.67-.575.471-.23-2.218-.032v-3.19z"/><path fill="#2d72b8" d="M60.223 53.805v10.937l7.466-8.749v-7.589l-7.423 5.388zm0-4.62.043-.01 7.423-3.993v-7.636l-7.466.687zm.043-26.462-.043-.01v10.912l7.466.698v-7.632zm0-4.614 7.423 5.358v-7.59l-7.466-8.75v10.94l.043.014z"/></svg>
